svg/map/world_line.svg

<?xml version="1.0" encoding="UTF-8"?>
<svg width="24px" height="24px" viewBox="0 0 24 24" version="1.1" xmlns="http://www.w3.org/2000/svg" xmlns:xlink="http://www.w3.org/1999/xlink">
    <title>world_line</title>
    <g id="页面-1" stroke="none" stroke-width="1" fill="none" fill-rule="evenodd">
        <g id="world_line">
             <path d="M24,0 L24,24 L0,24 L0,0 L24,0 Z M12.5934901,23.257841 L12.5819402,23.2595131 L12.5108777,23.2950439 L12.4918791,23.2987469 L12.4918791,23.2987469 L12.4767152,23.2950439 L12.4056548,23.2595131 C12.3958229,23.2563662 12.3870493,23.2590235 12.3821421,23.2649074 L12.3780323,23.275831 L12.360941,23.7031097 L12.3658947,23.7234994 L12.3769048,23.7357139 L12.4804777,23.8096931 L12.4953491,23.8136134 L12.4953491,23.8136134 L12.5071152,23.8096931 L12.6106902,23.7357139 L12.6232938,23.7196733 L12.6232938,23.7196733 L12.6266527,23.7031097 L12.609561,23.275831 C12.6075724,23.2657013 12.6010112,23.2592993 12.5934901,23.257841 L12.5934901,23.257841 Z M12.8583906,23.1452862 L12.8445485,23.1473072 L12.6598443,23.2396597 L12.6498822,23.2499052 L12.6498822,23.2499052 L12.6471943,23.2611114 L12.6650943,23.6906389 L12.6699349,23.7034178 L12.6699349,23.7034178 L12.678386,23.7104931 L12.8793402,23.8032389 C12.8914285,23.8068999 12.9022333,23.8029875 12.9078286,23.7952264 L12.9118235,23.7811639 L12.8776777,23.1665331 C12.8752882,23.1545897 12.8674102,23.1470016 12.8583906,23.1452862 L12.8583906,23.1452862 Z M12.1430473,23.1473072 C12.1332178,23.1423925 12.1221763,23.1452606 12.1156365,23.1525954 L12.1099173,23.1665331 L12.0757714,23.7811639 C12.0751323,23.7926639 12.0828099,23.8018602 12.0926481,23.8045676 L12.108256,23.8032389 L12.3092106,23.7104931 L12.3186497,23.7024347 L12.3186497,23.7024347 L12.3225043,23.6906389 L12.340401,23.2611114 L12.337245,23.2485176 L12.337245,23.2485176 L12.3277531,23.2396597 L12.1430473,23.1473072 Z" id="MingCute" fill-rule="nonzero"></path>
            <path d="M12,2 C17.5228,2 22,6.47715 22,12 C22,17.5228 17.5228,22 12,22 C6.47715,22 2,17.5228 2,12 C2,6.47715 6.47715,2 12,2 Z M19.1935,15.5047 C16.9897,16.4665 14.5563,16.9999 12,16.9999 C9.44369,16.9999 7.01033,16.4665 4.80654,15.5047 C6.10576,18.1664 8.83875,20 12,20 C15.1613,20 17.8942,18.1664 19.1935,15.5047 Z M19.4315,9.03241 C17.2403,10.2844 14.7026,11 12,11 C9.29735,11 6.75969,10.2844 4.56847,9.03241 C4.20172,9.95005 4,10.9515 4,12 C4,12.3 4.01652,12.5962 4.04869,12.8876 C6.39035,14.2314 9.10411,14.9999 12,14.9999 C14.8959,14.9999 17.6096,14.2314 19.9513,12.8876 C19.9835,12.5962 20,12.3 20,12 C20,10.9515 19.7983,9.95003 19.4315,9.03241 Z M12,4 C9.34564,4 6.99322,5.29272 5.53796,7.28293 C7.441,8.3754 9.64645,9 12,9 C14.3535,9 16.559,8.37539 18.462,7.2829 C17.0068,5.29271 14.6543,4 12,4 Z" id="形状" fill="#09244B" fill-rule="nonzero"></path>
        </g>
    </g>
</svg>

<svg xmlns="http://www.w3.org/2000/svg" width="24" height="24"><g fill="none" fill-rule="evenodd"><path d="M24 0v24H0V0h24ZM12.593 23.258l-.011.002-.071.035-.02.004-.014-.004-.071-.035c-.01-.004-.019-.001-.024.005l-.004.01-.017.428.005.02.01.013.104.074.015.004.012-.004.104-.074.012-.016.004-.017-.017-.427c-.002-.01-.009-.017-.017-.018Zm.265-.113-.013.002-.185.093-.01.01-.003.011.018.43.005.012.008.007.201.093c.012.004.023 0 .029-.008l.004-.014-.034-.614c-.003-.012-.01-.02-.02-.022Zm-.715.002a.023.023 0 0 0-.027.006l-.006.014-.034.614c0 .012.007.02.017.024l.015-.002.201-.093.01-.008.004-.011.017-.43-.003-.012-.01-.01-.184-.092Z"/><path fill="#09244B" fill-rule="nonzero" d="M12 2c5.523 0 10 4.477 10 10s-4.477 10-10 10S2 17.523 2 12 6.477 2 12 2Zm7.194 13.505A17.942 17.942 0 0 1 12 17c-2.556 0-4.99-.534-7.193-1.495A8 8 0 0 0 12 20a8 8 0 0 0 7.194-4.495Zm.238-6.473A14.936 14.936 0 0 1 12 11c-2.703 0-5.24-.716-7.432-1.968a7.979 7.979 0 0 0-.52 3.856A15.922 15.922 0 0 0 12 15c2.896 0 5.61-.769 7.951-2.112a7.978 7.978 0 0 0-.52-3.855ZM12 4a7.989 7.989 0 0 0-6.462 3.283A12.936 12.936 0 0 0 12 9c2.354 0 4.559-.625 6.462-1.717A7.989 7.989 0 0 0 12 4Z"/></g></svg>
